X:1
T:Bor, CMD
T:Bor, CMD
T:Robert Lowry, 1884
T:Public Domain Courtesy of the Cyber Hymnal™
C:Robert Lowry, 1884
Z:Public Domain
Z:Courtesy of the Cyber Hymnal™
%%score ( 1 2 ) ( 3 4 )
L:1/8
Q:1/4=108
M:4/4
K:D
V:1 treble 
V:2 treble 
V:3 bass 
V:4 bass 
V:1
 [FA]2 | [Fd]3 [DF] [FA]3 [DF] | ([FA][EG]) ([DF][CE]) D3 D | [DF]2 [FA]2 [Fd]2 [DF]2 | %4
 [CA]6 [FA]2 | [FB]2 [FA]2 [EG]3 [EG] | [EA]2 [EG]2 [DF]3 [DF] | [CE]2 [CA]2 [DB]2 [Ec]2 | %8
 [CA]6{B} A2 x | [Ge]3 [Fd] ([Ec][GB]) ([FA][EG]) | [DF]3 [GB] [FA]2 [FA]2 | %11
 [GB]2 [Ac]2 [Ad]2 [Ge]2 | ([Fd]4 [Ec]2) A2 | [Af]3 [Ge] ([Fd][Ac]) ([GB][FA]) | %14
 [GB]2 [Gc]2 [Fd]2 [DF]2 | [CA]2 D2 [DF]3 [CE] | D6 |] %17
V:2
 x2 | x8 | x4 D3 D | x8 | x8 | x8 | x8 | x8 | x7 (3(C{E,}DE) | x8 | x8 | x8 | x6 A2 | x8 | x8 | %15
 x2 D2 x4 | D6 |] %17
V:3
 [D,D]2 | [D,A,]3 [D,A,] [D,D]3 [D,A,] | [A,,A,]2 (A,G,) [D,F,]3 [D,F,] | %3
 [D,A,]2 [D,D]2 [D,A,]2 [D,A,]2 | [A,,A,]6 [D,A,]2 | [B,,D]2 [B,,B,]2 [E,B,]3 [E,B,] | %6
 [A,,C]2 [A,,A,]2 [D,A,]3 [D,A,] | [E,A,]2 [E,A,]2 [E,^G,]2 [E,G,]2 | [A,,A,]6 A,2 x | %9
 A,3 A, [A,,A,]2 [A,,A,]2 | [D,A,]3 [D,D] [D,D]2 [D,D]2 | [G,D]2 [E,E]2 [F,D]2 [G,B,]2 | A,6 A,2 | %13
 [D,D]3 [D,D] [D,D]2 [D,D]2 | [G,D]2 [E,A,]2 [D,A,]2 [D,A,]2 | [A,,G,]2 [B,,F,]2 [A,,A,]3 [A,,G,] | %16
 [D,F,]6 |] %17
V:4
 x2 | x8 | x2 A,,2 x4 | x8 | x8 | x8 | x8 | x8 | x6 A,2 x | A,3 A, x4 | x8 | x8 | A,6 A,2 | x8 | %14
 x8 | x8 | x6 |] %17

